X: 28722
T: My Eileen Is Waiting For Me
R: waltz
M: 3/4
K: Gmajor
d2c2|B3A B2|c3Bc2|d2g4|g4GA|
B4d2|e2d2B2|A6|A2d2c2|
B3A B2|c3Bc2|d2g4|g4GA|
B2G2B2|d2c2A2|G4G2|G4d2|
e4ef|g3a gf|e2d4|d4ef|
g3f g2|e2d2B2|A6|A2d2c2|
B3A B2|c3Bc2|d2g4|g4GA|
B2G2B2|d2c2A2|G4G2|G4|

